apps/xi.land/public/assets/mainPage/tasks/line.svg

<svg width="832" height="677" viewBox="0 0 832 677" fill="none" xmlns="http://www.w3.org/2000/svg">
<path d="M1192 486.689C1146.22 553.492 1092.97 663.897 999.542 656.661C965.017 653.752 937.39 625.852 931.947 592.208C924.378 545.808 940.634 503.362 954.093 458.491C971.915 403.736 994.658 350.659 1016.99 297.396C1040.96 235.517 1078.06 168.08 1064.64 100.27C1050.92 34.1387 975.121 14.7059 922.701 48.387C833.444 123.806 714.546 293.815 635.878 373.71C611.42 396.537 570.967 394.337 550.983 364.609C533.46 337.679 535.734 301.835 542.184 272.48C561.385 192.809 605.827 67.2976 609.966 -10.0235C614.962 -63.1002 573.614 -93.4616 525.556 -98.6089C430.334 -106.181 316.992 -2.04145 252.305 60.9195C201.674 112.765 156.709 171.25 115.325 232.57C38.2969 352.188 -10.9547 465.615 50.7869 533.388C75.5804 560.765 121.066 579.191 159.916 571.172C235.564 559.05 271.207 488.368 284.257 418.283C297.418 356.291 299.282 293.554 287.239 231.302C250.627 34.6982 89.7855 -22.6306 -29 153.459" stroke="url(#paint0_linear_3726_8947)" stroke-width="40" stroke-miterlimit="10" stroke-linecap="round"/>
<defs>
<linearGradient id="paint0_linear_3726_8947" x1="-29" y1="20.3384" x2="885.255" y2="501.246" gradientUnits="userSpaceOnUse">
<stop stop-color="#445AFF"/>
<stop offset="0.51" stop-color="#45FFDA"/>
<stop offset="1" stop-color="#00B32F"/>
</linearGradient>
</defs>
</svg>

<svg width="832" height="677" fill="none" xmlns="http://www.w3.org/2000/svg">
    <path d="M1192 486.689c-45.78 66.803-99.03 177.208-192.458 169.972-34.525-2.909-62.152-30.809-67.595-64.453-7.569-46.4 8.687-88.846 22.146-133.717 17.822-54.755 40.565-107.832 62.897-161.095 23.97-61.879 61.07-129.316 47.65-197.126-13.72-66.131-89.519-85.564-141.939-51.883-89.257 75.419-208.155 245.428-286.823 325.323-24.458 22.827-64.911 20.627-84.895-9.101-17.523-26.93-15.249-62.774-8.799-92.129 19.201-79.671 63.643-205.182 67.782-282.504 4.996-53.076-36.352-83.438-84.41-88.585C430.334-106.18 316.992-2.04 252.305 60.92c-50.631 51.845-95.596 110.33-136.98 171.65-77.028 119.618-126.28 233.045-64.538 300.818 24.793 27.377 70.279 45.803 109.129 37.784 75.648-12.122 111.291-82.804 124.341-152.889 13.161-61.992 15.025-124.729 2.982-186.981C250.627 34.698 89.786-22.631-29 153.459" stroke="url(#a)" stroke-width="40" stroke-miterlimit="10" stroke-linecap="round"/>
    <defs>
        <linearGradient id="a" x1="-29" y1="20.338" x2="885.255" y2="501.246" gradientUnits="userSpaceOnUse">
            <stop stop-color="#445AFF"/>
            <stop offset=".51" stop-color="#45FFDA"/>
            <stop offset="1" stop-color="#00B32F"/>
        </linearGradient>
    </defs>
</svg>
